X: 28791
T: My Love Is Like The Sun
R: reel
M: 4/4
K: Dmajor
DE|FE F<A D2 dB|AFED E2 EF|GABc dcB^A|B6
AG|FABc d2 dB|AFED E2 DE|F2 BA GFED|D6||

